src/assets/duotone/Copy.svg

<svg width="24" height="24" viewBox="0 0 24 24"  xmlns="http://www.w3.org/2000/svg">
<path d="M16 12.9V17.1C16 20.6 14.6 22 11.1 22H6.9C3.4 22 2 20.6 2 17.1V12.9C2 9.4 3.4 8 6.9 8H11.1C14.6 8 16 9.4 16 12.9Z" />
<path opacity="0.4" d="M17.0998 2H12.8998C9.44976 2 8.04977 3.37 8.00977 6.75H11.0998C15.2998 6.75 17.2498 8.7 17.2498 12.9V15.99C20.6298 15.95 21.9998 14.55 21.9998 11.1V6.9C21.9998 3.4 20.5998 2 17.0998 2Z" />
</svg>

<?xml version="1.0" encoding="UTF-8"?>
<svg width="24" height="24" viewBox="0 0 24 24" xmlns="http://www.w3.org/2000/svg">
 <path d="M16 12.9V17.1C16 20.6 14.6 22 11.1 22H6.9C3.4 22 2 20.6 2 17.1V12.9C2 9.4 3.4 8 6.9 8H11.1C14.6 8 16 9.4 16 12.9Z"/>
 <path d="m17.1 2h-4.2c-3.45 0-4.85 1.37-4.89 4.75h3.09c4.2 0 6.15 1.95 6.15 6.15v3.09c3.38-0.04 4.75-1.44 4.75-4.89v-4.2c0-3.5-1.4-4.9-4.9-4.9z" opacity=".4"/>
</svg>
